images/cause__list__image.svg

<svg width="72" height="72" viewBox="0 0 72 72" fill="none" xmlns="http://www.w3.org/2000/svg">
<circle cx="36" cy="36" r="36" fill="url(#paint0_linear_0_3386)"/>
<path fill-rule="evenodd" clip-rule="evenodd" d="M49.3156 23.0589V19.3316C49.3132 17.4925 47.823 16.0023 45.984 16H19.3316C17.4925 16.0023 16.0023 17.4925 16 19.3316V33.9904C16.0052 35.692 17.295 37.1151 18.9877 37.2876L21.4924 43.7893C22.1541 45.5061 24.082 46.3613 25.7989 45.7005L41.4398 39.6754C40.359 42.4984 40.6665 45.6652 42.2697 48.2276L42.6525 48.8398V55.3124C42.6525 55.6805 42.9506 55.9787 43.3188 55.9787H55.3124C55.6805 55.9787 55.9787 55.6805 55.9787 55.3124V33.3183C55.9724 31.014 55.055 28.8062 53.4259 27.1765L49.3156 23.0589ZM49.3156 27.0438L51.3378 32.2933C51.7341 33.3238 51.2206 34.48 50.1903 34.8766L49.0344 35.323C49.2189 34.9029 49.3146 34.4488 49.3156 33.9904V27.0438ZM17.3326 19.3316V33.9904C17.3326 35.0941 18.2278 35.9893 19.3316 35.9893H39.3056L36.7036 33.1474C35.4231 31.7198 35.5063 29.5343 36.8909 28.2072C38.2751 26.8809 40.4623 26.8912 41.8342 28.2315L47.9376 34.3356C47.9626 34.2219 47.9778 34.1067 47.9829 33.9904V23.5818L47.9771 23.5666H47.9829V19.3316C47.9829 18.2278 47.0878 17.3326 45.984 17.3326H19.3316C18.2278 17.3326 17.3326 18.2278 17.3326 19.3316ZM25.8687 37.322L21.1306 39.1462L20.4296 37.322H25.8687ZM22.7357 43.3101C23.1327 44.3402 24.2896 44.8538 25.3197 44.4567L41.393 38.2621L40.5269 37.318H29.5654V37.322L21.6117 40.387L22.7357 43.3101ZM43.9851 54.6461V49.3156H54.6461V54.6461H43.9851ZM43.6886 47.9829H54.6461V33.3183C54.6407 31.3678 53.863 29.4991 52.4837 28.1202L50.3252 25.9572L52.5805 31.8134C53.2405 33.5298 52.3856 35.4561 50.6702 36.1179L49.9865 36.3845L52.4519 38.8498L51.5097 39.792L40.8919 29.1766C40.037 28.3251 38.6586 28.3114 37.7865 29.1463C36.9148 29.981 36.869 31.3588 37.6833 32.25L43.1435 38.2068C43.3394 38.4204 43.3747 38.7362 43.2308 38.9877C41.7103 41.6457 41.7749 44.9249 43.3996 47.5212L43.6886 47.9829ZM25.3284 23.5959C25.3284 24.5528 24.5528 25.3284 23.5959 25.3284H20.3977C19.4408 25.3284 18.6652 24.5528 18.6652 23.5959V20.3977C18.6652 19.4408 19.4408 18.6652 20.3977 18.6652H23.5959C24.5528 18.6652 25.3284 19.4408 25.3284 20.3977V23.5959ZM19.9979 22.6631V23.5959C19.9979 23.8167 20.1769 23.9957 20.3977 23.9957H23.5959C23.8167 23.9957 23.9957 23.8167 23.9957 23.5959V22.6631H22.6631V21.3305H23.9957V20.3977C23.9957 20.1769 23.8167 19.9979 23.5959 19.9979H20.3977C20.1769 19.9979 19.9979 20.1769 19.9979 20.3977V21.3305H21.3305V22.6631H19.9979ZM21.9968 27.3273H19.3316V28.6599H21.9968V27.3273ZM19.3316 31.3252H21.9968V32.6578H19.3316V31.3252ZM33.9904 31.3252H31.3252V32.6578H33.9904V31.3252ZM23.3294 27.3273H25.9947V28.6599H23.3294V27.3273ZM29.9925 27.3273H27.3273V28.6599H29.9925V27.3273ZM31.3252 27.3273H33.9904V28.6599H31.3252V27.3273ZM45.3177 19.3316H43.9851V21.3305H45.3177V19.3316ZM41.3198 19.3316H42.6525V21.3305H41.3198V19.3316ZM39.9872 19.3316H38.6546V21.3305H39.9872V19.3316ZM35.9893 19.3316H37.322V21.3305H35.9893V19.3316ZM46.6503 51.9808V50.6482H45.3177V51.9808H46.6503Z" fill="white"/>
<defs>
<linearGradient id="paint0_linear_0_3386" x1="-35.8489" y1="35.8489" x2="35.8489" y2="107.547" gradientUnits="userSpaceOnUse">
<stop stop-color="#33D35E"/>
<stop offset="1" stop-color="#2AB6D9"/>
</linearGradient>
</defs>
</svg>

<svg width="72" height="72" fill="none" xmlns="http://www.w3.org/2000/svg"><circle cx="36" cy="36" r="36" fill="url(#a)"/><path fill-rule="evenodd" clip-rule="evenodd" d="M49.316 23.059v-3.727A3.336 3.336 0 0 0 45.984 16H19.332A3.336 3.336 0 0 0 16 19.332V33.99a3.325 3.325 0 0 0 2.988 3.298l2.504 6.501A3.332 3.332 0 0 0 25.8 45.7l15.64-6.025a9.632 9.632 0 0 0 .83 8.553l.384.612v6.472c0 .369.298.667.666.667h11.993a.666.666 0 0 0 .667-.667V33.318a8.72 8.72 0 0 0-2.553-6.141l-4.11-4.118Zm0 3.985 2.022 5.25a1.999 1.999 0 0 1-1.148 2.583l-1.156.446c.185-.42.28-.874.282-1.333v-6.946Zm-31.983-7.712V33.99a2 2 0 0 0 1.999 2h19.974l-2.602-2.843a3.555 3.555 0 0 1 5.13-4.915l6.104 6.104c.025-.114.04-.23.045-.346V23.582l-.006-.015h.006v-4.235a2 2 0 0 0-1.999-2H19.332a2 2 0 0 0-2 2Zm8.536 17.99-4.738 1.824-.701-1.824h5.439Zm-3.133 5.988a1.999 1.999 0 0 0 2.584 1.147l16.073-6.195-.866-.944H29.565v.004l-7.953 3.065 1.124 2.923Zm21.25 11.336v-5.33h10.66v5.33h-10.66Zm-.297-6.663h10.957V33.318a7.38 7.38 0 0 0-2.162-5.198l-2.159-2.163 2.255 5.856a3.332 3.332 0 0 1-1.91 4.305l-.684.267 2.466 2.465-.942.942-10.618-10.615a2.222 2.222 0 0 0-3.209 3.073l5.46 5.957c.196.213.232.53.088.78a8.309 8.309 0 0 0 .169 8.534l.289.462Zm-18.36-24.387c0 .957-.776 1.732-1.733 1.732h-3.198a1.732 1.732 0 0 1-1.733-1.732v-3.198c0-.957.776-1.733 1.733-1.733h3.198c.957 0 1.732.776 1.732 1.733v3.198Zm-5.331-.933v.933c0 .22.179.4.4.4h3.198a.4.4 0 0 0 .4-.4v-.933h-1.333v-1.332h1.333v-.933a.4.4 0 0 0-.4-.4h-3.198a.4.4 0 0 0-.4.4v.933h1.332v1.332h-1.332Zm1.999 4.664h-2.665v1.333h2.665v-1.333Zm-2.665 3.998h2.665v1.333h-2.665v-1.333Zm14.658 0h-2.665v1.333h2.665v-1.333Zm-10.66-3.998h2.665v1.333h-2.666v-1.333Zm6.663 0h-2.666v1.333h2.665v-1.333Zm1.332 0h2.665v1.333h-2.665v-1.333Zm13.993-7.995h-1.333v1.998h1.333v-1.998Zm-3.998 0h1.333v1.998H41.32v-1.998Zm-1.333 0h-1.332v1.998h1.332v-1.998Zm-3.998 0h1.333v1.998h-1.333v-1.998ZM46.65 51.98v-1.333h-1.332v1.333h1.332Z" fill="#fff"/><defs><linearGradient id="a" x1="-35.849" y1="35.849" x2="35.849" y2="107.547" gradientUnits="userSpaceOnUse"><stop stop-color="#33D35E"/><stop offset="1" stop-color="#2AB6D9"/></linearGradient></defs></svg>
